X:1
T:A La Puerta Del Cielo
M:2/4
L:1/8
K:G
 DG GA| B2 cA| d2 cc| B2 A2| DG GA| B2 cA| d2 cc| B2 A2| d2 de|c-B c2|\
 B2 Bc|A-G A2|D-G GA| B2 cA| G2 F2| G4|
